flaticon/gastronomy/pie-2.svg

<svg xmlns="http://www.w3.org/2000/svg" width="32" height="32" viewBox="0 0 24 24">
    <path d="M 21.988281 18.046875 L 22.152344 17.597656 C 22.289062 17.21875 22.332031 16.75 22.285156 16.117188 C 22.273438 15.953125 22.253906 15.789062 22.234375 15.636719 C 22.164062 15.074219 22.136719 14.738281 22.375 14.390625 C 22.453125 14.277344 22.613281 14.085938 22.78125 13.882812 C 23.46875 13.066406 23.953125 12.449219 23.953125 11.953125 C 23.953125 11.457031 23.46875 10.839844 22.78125 10.023438 C 22.613281 9.820312 22.453125 9.628906 22.375 9.519531 C 22.136719 9.167969 22.164062 8.835938 22.234375 8.273438 C 22.253906 8.117188 22.273438 7.957031 22.285156 7.789062 C 22.421875 5.988281 21.875 5.683594 20.953125 5.390625 C 20.503906 5.246094 19.996094 5.085938 19.433594 4.523438 C 18.871094 3.960938 18.707031 3.449219 18.566406 3 C 18.273438 2.082031 17.964844 1.535156 16.164062 1.667969 C 15.996094 1.683594 15.835938 1.703125 15.683594 1.722656 C 15.121094 1.789062 14.785156 1.820312 14.433594 1.578125 C 14.324219 1.503906 14.132812 1.34375 13.933594 1.175781 C 13.113281 0.488281 12.496094 0 12 0 C 11.503906 0 10.886719 0.488281 10.066406 1.175781 C 9.867188 1.34375 9.675781 1.503906 9.5625 1.578125 C 9.214844 1.816406 8.878906 1.789062 8.316406 1.722656 C 8.164062 1.703125 8.003906 1.683594 7.835938 1.667969 C 6.035156 1.53125 5.726562 2.082031 5.433594 3 C 5.292969 3.449219 5.128906 3.960938 4.566406 4.523438 C 4.003906 5.085938 3.496094 5.246094 3.046875 5.390625 C 2.125 5.679688 1.578125 5.988281 1.714844 7.789062 C 1.726562 7.957031 1.746094 8.117188 1.765625 8.273438 C 1.835938 8.832031 1.863281 9.167969 1.625 9.519531 C 1.550781 9.628906 1.390625 9.820312 1.21875 10.019531 C 0.53125 10.839844 0.046875 11.457031 0.046875 11.953125 C 0.046875 12.449219 0.53125 13.066406 1.21875 13.882812 C 1.386719 14.085938 1.546875 14.277344 1.625 14.390625 C 1.863281 14.738281 1.835938 15.074219 1.765625 15.636719 C 1.746094 15.792969 1.726562 15.953125 1.714844 16.117188 C 1.578125 17.917969 2.125 18.226562 3.046875 18.519531 C 3.496094 18.664062 4.003906 18.824219 4.566406 19.386719 C 5.128906 19.949219 5.292969 20.457031 5.433594 20.90625 C 5.726562 21.828125 6.035156 22.375 7.835938 22.238281 C 8.003906 22.226562 8.164062 22.207031 8.316406 22.1875 C 8.878906 22.117188 9.214844 22.089844 9.5625 22.328125 C 9.675781 22.40625 9.867188 22.566406 10.070312 22.734375 C 10.886719 23.421875 11.503906 23.90625 12 23.910156 C 12.496094 23.910156 13.113281 23.421875 13.929688 22.734375 C 14.132812 22.566406 14.324219 22.40625 14.4375 22.328125 C 14.789062 22.089844 15.125 22.117188 15.6875 22.1875 C 15.820312 22.203125 15.960938 22.222656 16.105469 22.234375 L 16.746094 22.289062 L 13.253906 13.097656 Z M 13.976562 21.660156 C 13.832031 21.757812 13.636719 21.921875 13.410156 22.113281 C 13.0625 22.40625 12.253906 23.085938 12 23.097656 C 11.746094 23.085938 10.9375 22.40625 10.589844 22.113281 C 10.363281 21.921875 10.167969 21.757812 10.023438 21.660156 C 9.640625 21.398438 9.265625 21.324219 8.898438 21.324219 C 8.667969 21.324219 8.441406 21.355469 8.21875 21.382812 C 8.074219 21.398438 7.925781 21.417969 7.773438 21.429688 C 6.484375 21.527344 6.417969 21.328125 6.207031 20.660156 C 6.054688 20.175781 5.84375 19.515625 5.140625 18.8125 C 4.4375 18.109375 3.777344 17.898438 3.292969 17.746094 C 2.625 17.535156 2.425781 17.46875 2.523438 16.179688 C 2.535156 16.027344 2.554688 15.878906 2.570312 15.738281 C 2.644531 15.152344 2.71875 14.550781 2.292969 13.929688 C 2.195312 13.785156 2.03125 13.589844 1.839844 13.363281 C 1.546875 13.015625 0.867188 12.207031 0.855469 11.953125 C 0.867188 11.699219 1.550781 10.886719 1.839844 10.542969 C 2.03125 10.316406 2.195312 10.121094 2.292969 9.976562 C 2.71875 9.355469 2.644531 8.753906 2.570312 8.171875 C 2.554688 8.027344 2.535156 7.882812 2.523438 7.726562 C 2.425781 6.4375 2.625 6.371094 3.292969 6.160156 C 3.777344 6.007812 4.4375 5.796875 5.140625 5.09375 C 5.84375 4.394531 6.054688 3.730469 6.207031 3.246094 C 6.417969 2.578125 6.484375 2.378906 7.773438 2.476562 C 7.925781 2.488281 8.074219 2.507812 8.214844 2.523438 C 8.800781 2.597656 9.402344 2.671875 10.019531 2.246094 C 10.167969 2.148438 10.363281 1.984375 10.585938 1.792969 C 10.933594 1.503906 11.746094 0.824219 12 0.8125 C 12.253906 0.824219 13.066406 1.503906 13.410156 1.796875 C 13.636719 1.984375 13.832031 2.148438 13.976562 2.25 C 14.597656 2.671875 15.199219 2.597656 15.78125 2.527344 C 15.925781 2.507812 16.070312 2.488281 16.226562 2.476562 C 17.515625 2.378906 17.582031 2.582031 17.792969 3.246094 C 17.945312 3.730469 18.15625 4.394531 18.859375 5.09375 C 19.558594 5.796875 20.222656 6.007812 20.707031 6.160156 C 21.375 6.375 21.574219 6.4375 21.476562 7.730469 C 21.464844 7.882812 21.445312 8.03125 21.429688 8.171875 C 21.355469 8.753906 21.28125 9.355469 21.707031 9.976562 C 21.804688 10.121094 21.96875 10.316406 22.160156 10.542969 C 22.449219 10.890625 23.128906 11.699219 23.144531 11.953125 C 23.128906 12.207031 22.449219 13.015625 22.160156 13.363281 C 21.96875 13.589844 21.804688 13.789062 21.703125 13.933594 C 21.28125 14.554688 21.355469 15.15625 21.429688 15.738281 C 21.445312 15.878906 21.464844 16.027344 21.476562 16.179688 C 21.496094 16.429688 21.496094 16.644531 21.484375 16.832031 L 20.078125 16.035156 C 20.105469 16.003906 20.132812 15.976562 20.152344 15.9375 C 20.742188 14.71875 21.042969 13.410156 21.042969 12.042969 C 21.042969 7.125 17.042969 3.121094 12.121094 3.121094 C 7.199219 3.121094 3.199219 7.125 3.199219 12.042969 C 3.199219 16.964844 7.199219 20.96875 12.121094 20.96875 C 13.171875 20.96875 14.191406 20.777344 15.167969 20.421875 L 15.523438 21.351562 C 15.023438 21.296875 14.507812 21.296875 13.976562 21.660156 Z M 14.882812 19.664062 C 13.996094 19.984375 13.074219 20.15625 12.121094 20.15625 C 7.648438 20.15625 4.007812 16.515625 4.007812 12.042969 C 4.007812 7.570312 7.648438 3.929688 12.121094 3.929688 C 16.59375 3.929688 20.234375 7.570312 20.234375 12.042969 C 20.234375 13.285156 19.960938 14.476562 19.421875 15.582031 C 19.410156 15.605469 19.410156 15.628906 19.40625 15.652344 L 11.695312 11.28125 Z M 14.882812 19.664062"/>
    <path d="M12.300781 9.257812C12.402344 9.257812 12.507812 9.21875 12.585938 9.136719 13.691406 8.03125 13.691406 6.234375 12.585938 5.128906 12.429688 4.96875 12.171875 4.96875 12.011719 5.128906 11.476562 5.664062 11.183594 6.375 11.183594 7.132812 11.183594 7.890625 11.476562 8.601562 12.011719 9.136719 12.09375 9.21875 12.195312 9.257812 12.300781 9.257812zM12.300781 6.074219C12.699219 6.722656 12.699219 7.546875 12.300781 8.195312 12.105469 7.878906 11.992188 7.515625 11.992188 7.132812 11.992188 6.753906 12.105469 6.390625 12.300781 6.074219zM12.011719 19.160156C12.09375 19.238281 12.195312 19.277344 12.300781 19.277344 12.402344 19.277344 12.507812 19.238281 12.585938 19.160156 13.691406 18.054688 13.691406 16.253906 12.585938 15.148438 12.429688 14.992188 12.171875 14.992188 12.011719 15.148438 11.476562 15.683594 11.183594 16.398438 11.183594 17.152344 11.183594 17.910156 11.476562 18.621094 12.011719 19.160156zM12.300781 16.09375C12.699219 16.742188 12.699219 17.566406 12.300781 18.214844 12.105469 17.898438 11.992188 17.535156 11.992188 17.152344 11.992188 16.773438 12.105469 16.410156 12.300781 16.09375zM15.304688 11.855469C15.148438 12.015625 15.148438 12.273438 15.304688 12.429688 15.839844 12.964844 16.554688 13.261719 17.308594 13.261719 18.066406 13.261719 18.777344 12.964844 19.316406 12.429688 19.472656 12.273438 19.472656 12.015625 19.316406 11.855469 18.210938 10.753906 16.410156 10.753906 15.304688 11.855469zM16.25 12.144531C16.898438 11.742188 17.722656 11.742188 18.371094 12.144531 18.054688 12.339844 17.691406 12.449219 17.308594 12.449219 16.929688 12.449219 16.566406 12.339844 16.25 12.144531zM9.292969 12.429688C9.453125 12.273438 9.453125 12.015625 9.292969 11.855469 8.1875 10.75 6.390625 10.753906 5.285156 11.855469 5.128906 12.015625 5.128906 12.273438 5.285156 12.429688 5.820312 12.964844 6.535156 13.261719 7.289062 13.261719 8.046875 13.261719 8.757812 12.964844 9.292969 12.429688zM8.351562 12.144531C8.035156 12.339844 7.671875 12.449219 7.289062 12.449219 6.910156 12.449219 6.546875 12.339844 6.230469 12.144531 6.878906 11.742188 7.703125 11.742188 8.351562 12.144531zM14.628906 10.222656C16.191406 10.21875 17.460938 8.949219 17.460938 7.386719 17.460938 7.160156 17.28125 6.980469 17.058594 6.980469 15.496094 6.980469 14.222656 8.253906 14.222656 9.816406 14.222656 10.039062 14.40625 10.222656 14.628906 10.222656zM16.59375 7.851562C16.417969 8.59375 15.835938 9.175781 15.09375 9.351562 15.269531 8.609375 15.851562 8.027344 16.59375 7.851562zM9.972656 13.9375C9.214844 13.9375 8.503906 14.296875 7.96875 14.832031 7.433594 15.367188 7.136719 16.144531 7.136719 16.902344 7.136719 17.125 7.320312 17.304688 7.542969 17.304688 9.105469 17.304688 10.378906 16.035156 10.378906 14.472656 10.378906 14.449219 10.367188 14.429688 10.363281 14.40625 10.367188 14.386719 10.378906 14.367188 10.378906 14.34375 10.378906 14.117188 10.195312 13.9375 9.972656 13.9375zM7.996094 16.441406C8.074219 16.050781 8.261719 15.683594 8.542969 15.40625 8.816406 15.128906 9.160156 14.910156 9.53125 14.808594 9.394531 15.617188 8.785156 16.257812 7.996094 16.441406zM9.546875 7.8125C9.011719 7.277344 8.300781 6.980469 7.542969 6.980469 7.320312 6.980469 7.136719 7.160156 7.136719 7.386719 7.136719 7.386719 7.140625 7.390625 7.140625 7.394531 7.140625 7.394531 7.136719 7.398438 7.136719 7.402344 7.136719 8.160156 7.433594 8.890625 7.96875 9.425781 8.503906 9.960938 9.214844 10.289062 9.972656 10.289062 10.195312 10.289062 10.378906 10.105469 10.378906 9.882812 10.378906 9.871094 10.371094 9.859375 10.371094 9.847656 10.371094 9.835938 10.378906 9.828125 10.378906 9.816406 10.378906 9.058594 10.082031 8.347656 9.546875 7.8125zM8.003906 7.847656C8.367188 7.933594 8.703125 8.113281 8.976562 8.382812 9.261719 8.671875 9.453125 9.027344 9.527344 9.417969 9.15625 9.324219 8.816406 9.128906 8.542969 8.851562 8.269531 8.582031 8.085938 8.226562 8.003906 7.847656zM18.691406 24L19.03125 23.898438C19.140625 23.867188 21.742188 23.054688 22.945312 19.988281L23.070312 19.671875 14.289062 14.292969zM16.117188 16.363281L20.378906 18.976562C20.378906 18.980469 20.378906 18.984375 20.378906 18.992188 20.378906 20.246094 19.503906 21.273438 18.394531 21.382812zM19.121094 22.992188L18.742188 22.148438C19.992188 21.902344 20.972656 20.8125 21.15625 19.449219L22.058594 20.003906C21.214844 21.863281 19.769531 22.699219 19.121094 22.992188zM19.121094 22.992188"/>
</svg>

<svg xmlns="http://www.w3.org/2000/svg" width="32" height="32" viewBox="0 0 24 24">
    <path d="M21.988 18.047l.164-.45c.137-.378.18-.847.133-1.48a8.643 8.643 0 0 0-.05-.48c-.07-.563-.098-.899.14-1.246.078-.114.238-.305.406-.508.688-.817 1.172-1.434 1.172-1.93s-.484-1.113-1.172-1.93c-.168-.203-.328-.394-.406-.503-.238-.352-.21-.684-.14-1.247.019-.156.038-.316.05-.484.137-1.8-.41-2.105-1.332-2.398-.45-.145-.957-.305-1.52-.868-.562-.562-.726-1.074-.867-1.523-.293-.918-.601-1.465-2.402-1.332-.168.016-.328.035-.48.055-.563.066-.899.097-1.25-.145-.11-.074-.301-.234-.5-.402C13.114.488 12.496 0 12 0s-1.113.488-1.934 1.176c-.199.168-.39.328-.504.402-.347.238-.683.211-1.246.145-.152-.02-.312-.04-.48-.055-1.8-.137-2.11.414-2.402 1.332-.141.45-.305.96-.868 1.523-.562.563-1.07.723-1.52.868-.921.289-1.468.597-1.331 2.398.012.168.031.328.05.484.07.559.098.895-.14 1.247-.074.109-.234.3-.406.5-.688.82-1.172 1.437-1.172 1.933s.484 1.113 1.172 1.93c.168.203.328.394.406.508.238.347.21.683.14 1.246-.019.156-.038.316-.05.48-.137 1.801.41 2.11 1.332 2.403.45.144.957.304 1.52.867.562.562.726 1.07.867 1.52.293.921.601 1.468 2.402 1.331.168-.011.328-.031.48-.05.563-.07.899-.098 1.246.14.114.078.305.238.508.406.817.688 1.434 1.172 1.93 1.176.496 0 1.113-.488 1.93-1.176.203-.168.394-.328.508-.406.351-.238.687-.21 1.25-.14.132.015.273.035.417.046l.641.055-3.492-9.191zm-8.011 3.613c-.145.098-.34.262-.567.453-.348.293-1.156.973-1.41.985-.254-.012-1.063-.692-1.41-.985a7.862 7.862 0 0 0-.567-.453 1.906 1.906 0 0 0-1.125-.336c-.23 0-.457.031-.68.059-.144.015-.292.035-.445.047-1.289.097-1.355-.102-1.566-.77-.152-.484-.363-1.144-1.066-1.848-.704-.703-1.364-.914-1.848-1.066-.668-.21-.867-.277-.77-1.566.012-.153.032-.301.047-.442.075-.586.149-1.187-.277-1.808a7.862 7.862 0 0 0-.453-.567c-.293-.347-.973-1.156-.985-1.41.012-.254.696-1.066.985-1.41.191-.227.355-.422.453-.566.426-.622.352-1.223.277-1.805-.015-.145-.035-.29-.047-.445-.097-1.29.102-1.356.77-1.567.484-.152 1.144-.363 1.848-1.066.703-.7.914-1.364 1.066-1.848.211-.668.277-.867 1.566-.77.153.012.301.032.442.047.586.075 1.187.149 1.805-.277.148-.098.343-.262.566-.453.348-.29 1.16-.969 1.414-.98.254.011 1.066.69 1.41.984.227.187.422.351.567.453.62.422 1.222.348 1.804.277.145-.02.29-.039.446-.05 1.289-.098 1.355.105 1.566.77.152.483.363 1.148 1.066 1.847.7.703 1.364.914 1.848 1.066.668.215.867.277.77 1.57-.012.153-.032.301-.047.442-.075.582-.149 1.183.277 1.805.098.144.262.34.453.566.29.348.969 1.156.985 1.41-.016.254-.696 1.063-.985 1.41a9.325 9.325 0 0 0-.457.57c-.422.622-.348 1.223-.273 1.805.015.14.035.29.047.442.02.25.02.465.007.652l-1.406-.797c.027-.031.055-.058.074-.098.59-1.218.891-2.527.891-3.894 0-4.918-4-8.922-8.922-8.922C7.2 3.121 3.2 7.125 3.2 12.043c0 4.922 4 8.926 8.922 8.926 1.05 0 2.07-.192 3.047-.547l.355.93c-.5-.055-1.015-.055-1.546.308zm.906-1.996a8.083 8.083 0 0 1-2.762.492c-4.473 0-8.113-3.64-8.113-8.113 0-4.473 3.64-8.113 8.113-8.113 4.473 0 8.113 3.64 8.113 8.113a8.01 8.01 0 0 1-.812 3.539c-.012.023-.012.047-.016.07l-7.71-4.37zm0 0"/>
    <path d="M12.3 9.258c.102 0 .208-.04.286-.121a2.836 2.836 0 0 0 0-4.008.403.403 0 0 0-.574 0 2.812 2.812 0 0 0-.828 2.004c0 .758.293 1.469.828 2.004a.402.402 0 0 0 .289.12zm0-3.184a2.031 2.031 0 0 1 0 2.121 2.019 2.019 0 0 1-.308-1.062c0-.38.113-.742.309-1.059zm0 0M12.012 19.16a.414.414 0 0 0 .289.117c.101 0 .207-.039.285-.117a2.841 2.841 0 0 0 0-4.012.41.41 0 0 0-.574 0 2.82 2.82 0 0 0-.828 2.004c0 .758.293 1.47.828 2.008zm.289-3.066a2.031 2.031 0 0 1 0 2.12 2.019 2.019 0 0 1-.309-1.062c0-.379.113-.742.309-1.058zm0 0M15.305 11.855a.41.41 0 0 0 0 .575 2.832 2.832 0 0 0 4.012 0 .41.41 0 0 0 0-.575 2.848 2.848 0 0 0-4.012 0zm.945.29a2.015 2.015 0 0 1 2.121 0c-.316.195-.68.304-1.062.304-.38 0-.743-.11-1.059-.304zm0 0M9.293 12.43a.403.403 0 0 0 0-.575 2.84 2.84 0 0 0-4.008 0 .41.41 0 0 0 0 .575c.535.535 1.25.832 2.004.832.758 0 1.469-.297 2.004-.832zm-.941-.285c-.317.195-.68.304-1.063.304-.379 0-.742-.11-1.059-.304a2.015 2.015 0 0 1 2.122 0zm0 0M14.629 10.223a2.84 2.84 0 0 0 2.832-2.836.403.403 0 0 0-.402-.407 2.84 2.84 0 0 0-2.836 2.836c0 .223.183.407.406.407zm1.965-2.371a2.023 2.023 0 0 1-1.5 1.5 2.023 2.023 0 0 1 1.5-1.5zm0 0M9.973 13.938c-.758 0-1.47.359-2.004.894-.535.535-.832 1.313-.832 2.07 0 .223.183.403.406.403a2.837 2.837 0 0 0 2.836-2.832c0-.024-.012-.043-.016-.067.004-.02.016-.039.016-.062a.406.406 0 0 0-.406-.406zM7.996 16.44c.078-.39.266-.757.547-1.035a2.25 2.25 0 0 1 .988-.597 2.023 2.023 0 0 1-1.535 1.632zm0 0M9.547 7.813a2.816 2.816 0 0 0-2.004-.833.406.406 0 0 0-.406.407s.004.004.004.008c0 0-.004.003-.004.007 0 .758.297 1.489.832 2.024.535.535 1.246.863 2.004.863a.408.408 0 0 0 .406-.406c0-.012-.008-.024-.008-.035 0-.012.008-.02.008-.032 0-.757-.297-1.468-.832-2.004zm-1.543.035c.363.086.7.265.973.535.285.289.476.644.55 1.035a2.108 2.108 0 0 1-.984-.566 2.005 2.005 0 0 1-.54-1.004zm0 0M18.691 24l.34-.102c.11-.03 2.711-.843 3.914-3.91l.125-.316-8.78-5.379zm-2.574-7.637l4.262 2.614v.015c0 1.254-.875 2.281-1.984 2.39zm3.004 6.63l-.379-.845c1.25-.246 2.23-1.335 2.414-2.699l.903.555a5.995 5.995 0 0 1-2.938 2.988zm0 0"/>
</svg>
